images/hero_bg.svg

<svg height="738.481" viewBox="0 20 1440 738.481" width="1440" xmlns="http://www.w3.org/2000/svg" xmlns:xlink="http://www.w3.org/1999/xlink"><linearGradient id="a" gradientUnits="objectBoundingBox" x1="1.37" x2=".5" y1="1.291" y2=".5"><stop offset="0" stop-color="#fff" stop-opacity="0"/><stop offset="1" stop-color="#c9f0ff"/></linearGradient><linearGradient id="b" gradientUnits="objectBoundingBox" x1="-1.608" x2="1.07" y1="-2.245" y2=".707"><stop offset="0" stop-color="#fff" stop-opacity="0"/><stop offset="1" stop-color="#def5fe"/></linearGradient><linearGradient id="c" x1="-.199" x2="1.176" xlink:href="#a" y1="-.068" y2="1"/><linearGradient id="d" x1="1.199" x2="0" xlink:href="#a" y1="0" y2=".846"/><linearGradient id="e" x1="-.89" x2="1.371" xlink:href="#a" y1=".776" y2=".178"/><g transform="translate(0 -2.519)"><path d="m0 20h1440v721h-1440z" fill="#edfbff"/><rect fill="url(#a)" height="38" rx="3" transform="matrix(.70710678 .70710678 -.70710678 .70710678 974.87 567)" width="38"/><rect fill="url(#b)" height="17" rx="1" transform="matrix(.70710678 .70710678 -.70710678 .70710678 516.021 357.521)" width="17"/><path d="m13.711 3.578a2 2 0 0 1 3.578 0l12.264 24.528a2 2 0 0 1 -1.789 2.894h-24.528a2 2 0 0 1 -1.789-2.894z" fill="none" opacity=".54" stroke="#707070" stroke-miterlimit="10" stroke-width="10" transform="matrix(.8660254 .5 -.5 .8660254 1324.5 282)"/><path d="m22.028 8.944a5 5 0 0 1 8.944 0l18.41 36.82a5 5 0 0 1 -4.472 7.236h-36.82a5 5 0 0 1 -4.472-7.236z" fill="none" opacity=".54" stroke="#707070" stroke-miterlimit="10" stroke-width="10" transform="matrix(.8660254 .5 -.5 .8660254 830.5 154)"/><path d="m0 428s58.428-138.935 170.692-99.992 152.14 91.606 212.589 0c15.673-23.751 9.866-74.511-29.278-76.526s-9.252-46.316 58.144-55.007-18.1-70.062-69.4-87.9c-53.27-18.52 15.164-67.275 20.453-85.901 12.87-45.347-363.2 0-363.2 0z" fill="url(#c)"/><path d="m715 720s-131.247-1.538-193.555-60.474-61.792-186.387-194.636-179.419-274.8-21.538-224.4-101.821 168.127-70.332 196.264-201.192-202.236 27.165-240.286-59.848c-14.858-33.98 20.413-38.561-34.273-76.79-18.153-12.691-26.931-31.08-23.314-38.228 1.744-3.445 7.924 1.579 14.369 0 20.467-5.013 63.762 0 107.642 0h592.189z" fill="url(#d)" transform="translate(725 18)"/><path d="m10.4.229c8.7-1.819 11.4 7.779 27.271 7.779s29.975-9.065 49.611-1.072 35.522 32.21 15.406 27.541c-11.888-2.758-26.579-11.167-46.817 4.842s-32.349-14.56-47.511-9.869-6.735-27.386 2.04-29.221z" fill="url(#e)" transform="translate(510 612)"/></g></svg>

<svg xmlns="http://www.w3.org/2000/svg" xmlns:xlink="http://www.w3.org/1999/xlink" width="1440" height="738.481" viewBox="0 0 1440 738.481"><defs><style>.a{fill:#edfbff;}.b{fill:url(#a);}.c{fill:url(#b);}.d{fill:none;stroke:#707070;stroke-miterlimit:10;stroke-width:10px;opacity:0.54;mix-blend-mode:color-burn;isolation:isolate;}.e{fill:url(#c);}.f{fill:url(#d);}.g{fill:url(#e);}</style><linearGradient id="a" x1="1.37" y1="1.291" x2="0.5" y2="0.5" gradientUnits="objectBoundingBox"><stop offset="0" stop-color="#fff" stop-opacity="0"/><stop offset="1" stop-color="#c9f0ff"/></linearGradient><linearGradient id="b" x1="-1.608" y1="-2.245" x2="1.07" y2="0.707" gradientUnits="objectBoundingBox"><stop offset="0" stop-color="#fff" stop-opacity="0"/><stop offset="1" stop-color="#def5fe"/></linearGradient><linearGradient id="c" x1="-0.199" y1="-0.068" x2="1.176" y2="1" xlink:href="#a"/><linearGradient id="d" x1="1.199" y1="0" x2="0" y2="0.846" xlink:href="#a"/><linearGradient id="e" x1="-0.89" y1="0.776" x2="1.371" y2="0.178" xlink:href="#a"/></defs><g transform="translate(0 -2.519)"><rect class="a" width="1440" height="721" transform="translate(0 20)"/><rect class="b" width="38" height="38" rx="3" transform="translate(974.87 567) rotate(45)"/><rect class="c" width="17" height="17" rx="1" transform="translate(516.021 357.521) rotate(45)"/><path class="d" d="M13.711,3.578a2,2,0,0,1,3.578,0L29.553,28.106A2,2,0,0,1,27.764,31H3.236a2,2,0,0,1-1.789-2.894Z" transform="translate(1324.5 282) rotate(30)"/><path class="d" d="M22.028,8.944a5,5,0,0,1,8.944,0l18.41,36.82A5,5,0,0,1,44.91,53H8.09a5,5,0,0,1-4.472-7.236Z" transform="translate(830.5 154) rotate(30)"/><path class="e" d="M0,428s58.428-138.935,170.692-99.992,152.14,91.606,212.589,0c15.673-23.751,9.866-74.511-29.278-76.526s-9.252-46.316,58.144-55.007-18.1-70.062-69.4-87.9C289.477,90.055,357.911,41.3,363.2,22.674c12.87-45.347-363.2,0-363.2,0Z"/><path class="f" d="M715,720s-131.247-1.538-193.555-60.474S459.653,473.139,326.809,480.107s-274.8-21.538-224.4-101.821,168.127-70.332,196.264-201.192S96.437,204.259,58.387,117.246C43.529,83.266,78.8,78.685,24.114,40.456,5.961,27.765-2.817,9.376.8,2.228c1.744-3.445,7.924,1.579,14.369,0,20.467-5.013,63.762,0,107.642,0H715Z" transform="translate(725 18)"/><path class="g" d="M10.4.229C19.1-1.59,21.8,8.008,37.671,8.008S67.646-1.057,87.282,6.936s35.522,32.21,15.406,27.541C90.8,31.719,76.109,23.31,55.871,39.319S23.522,24.759,8.36,29.45,1.625,2.064,10.4.229Z" transform="translate(510 612)"/></g></svg>
